swiss/communes/0199.svg

<?xml version="1.0" encoding="UTF-8" standalone="no"?>
<!-- Created with Inkscape (http://www.inkscape.org/) -->
<svg
   xmlns:svg="http://www.w3.org/2000/svg"
   xmlns="http://www.w3.org/2000/svg"
   version="1.0"
   width="241.07918"
   height="282.38669"
   id="svg2780">
  <defs
     id="defs2782" />
  <g
     transform="translate(2.3168504,-800.1105)"
     id="layer1">
    <path
       d="M -1.3168504,801.1105 L 3.0300393,983.68788 C 6.1349523,1114.1003 230.31052,1114.1003 233.41544,983.68788 L 237.76233,801.1105 L -1.3168504,801.1105 z "
       style="fill:#feeb00;fill-opacity:1;fill-rule:evenodd;stroke:#000000;stroke-width:2;stroke-linecap:butt;stroke-miterlimit:4;stroke-dashoffset:0;stroke-opacity:1"
       id="path3282" />
    <path
       d="M 123.64329,233.14233 L 114.18354,203.59173 L 83.862096,210.17465 L 104.72379,187.20697 L 83.862095,164.23929 L 114.18354,170.82221 L 123.64329,141.27161 L 133.10303,170.82221 L 163.42448,164.23929 L 142.56278,187.20697 L 163.42448,210.17465 L 133.10303,203.59173 L 123.64329,233.14233 z "
       transform="matrix(1.3651696,0,0,1.3644128,-50.571318,749.36465)"
       style="fill:#d64229;fill-opacity:1;fill-rule:evenodd;stroke:#000000;stroke-width:0.73271284pt;stroke-linecap:butt;stroke-linejoin:miter;stroke-opacity:1"
       id="path2248" />
    <path
       d="M 1.7130274,124.04027 L 234.73245,124.04026 L 237.76233,-3.22019 L -1.3168504,-3.22019 L -1.3168504,-3.22019 L 1.7130274,124.04027 z "
       transform="translate(0,804.33069)"
       style="fill:#ffffff;fill-opacity:1;fill-rule:evenodd;stroke:#000000;stroke-width:2;stroke-linecap:butt;stroke-miterlimit:4;stroke-dashoffset:0;stroke-opacity:1"
       id="path9140" />
    <path
       d="M -1.3125,-3.21875 L 0.1875,60.21875 L 57.65625,60.21875 L 57.65625,-3.21875 L -1.3125,-3.21875 z M 57.65625,60.21875 L 57.65625,124.03125 L 118.28125,124.03125 L 118.28125,60.21875 L 57.65625,60.21875 z M 118.28125,60.21875 L 178.90625,60.21875 L 178.90625,-3.21875 L 118.28125,-3.21875 L 118.28125,60.21875 z M 178.90625,60.21875 L 178.90625,124.03125 L 234.71875,124.03125 L 236.25,60.21875 L 178.90625,60.21875 z "
       transform="translate(0,804.33069)"
       style="fill:#000000;fill-opacity:1;fill-rule:evenodd;stroke:none;stroke-width:1px;stroke-linecap:butt;stroke-linejoin:miter;stroke-opacity:1"
       id="path3223" />
  </g>
</svg>

<svg xmlns="http://www.w3.org/2000/svg" version="1.0" width="241.079" height="282.387"><path d="M-1.317 801.11 3.03 983.688c3.105 130.412 227.28 130.412 230.385 0l4.347-182.577H-1.317z" style="fill:#feeb00;fill-opacity:1;fill-rule:evenodd;stroke:#000;stroke-width:2;stroke-linecap:butt;stroke-miterlimit:4;stroke-dashoffset:0;stroke-opacity:1" transform="translate(2.317 -800.11)"/><path d="m123.643 233.142-9.46-29.55-30.32 6.583 20.86-22.968-20.86-22.968 30.32 6.583 9.46-29.55 9.46 29.55 30.321-6.583-20.861 22.968 20.861 22.968-30.321-6.583-9.46 29.55z" transform="matrix(1.36517 0 0 1.36441 -48.254 -50.746)" style="fill:#d64229;fill-opacity:1;fill-rule:evenodd;stroke:#000;stroke-width:.73271284pt;stroke-linecap:butt;stroke-linejoin:miter;stroke-opacity:1"/><path d="M1.713 124.04h233.02l3.03-127.26H-1.318l3.03 127.26z" transform="translate(2.317 4.22)" style="fill:#fff;fill-opacity:1;fill-rule:evenodd;stroke:#000;stroke-width:2;stroke-linecap:butt;stroke-miterlimit:4;stroke-dashoffset:0;stroke-opacity:1"/><path d="m-1.313-3.219 1.5 63.438h57.47V-3.22h-58.97zm58.97 63.438v63.812h60.624V60.22H57.656zm60.624 0h60.625V-3.22h-60.625V60.22zm60.625 0v63.812h55.813l1.531-63.812h-57.344z" transform="translate(2.317 4.22)" style="fill:#000;fill-opacity:1;fill-rule:evenodd;stroke:none;stroke-width:1px;stroke-linecap:butt;stroke-linejoin:miter;stroke-opacity:1"/></svg>
